static/images/dashboard2.svg

<svg height="86" viewBox="0 0 86 86" width="86" xmlns="http://www.w3.org/2000/svg"><g fill="none" fill-rule="evenodd"><circle cx="43" cy="43" fill="#02afde" r="43"/><g fill="#fff" transform="translate(22 23)"><g fill-rule="nonzero"><path d="m9.07939818 18.6273825c2.40971432 5.6808515 7.34331092 9.3726175 12.87139542 9.3726175 5.6136804 0 10.609503-3.8070235 12.9754965-9.6231888.2081071-.5115759-.037903-1.0949942-.5494789-1.3031013s-1.0949942.037903-1.3031013.5494789c-2.0752804 5.1015247-6.3733234 8.3768112-11.1229163 8.3768112-4.6761779 0-8.9179645-3.1740908-11.0301918-8.1536227-.2156686-.5084343-.8026701-.7457678-1.31110442-.5300992-.50843434.2156686-.74576784.8026701-.5300992 1.3111044z"/><path d="m34.9601118 9.65504619c-1.6531803-5.67648661-6.9094218-9.65504619-12.9506963-9.65504619-6.0682817 0-11.342096 4.01396003-12.97107107 9.72573997-.15146963.53110773.15628783 1.08444593.68739554 1.23591563.53110773.1514696 1.08444593-.1562879 1.23591563-.6873956 1.3848837-4.85590694 5.876149-8.27426 11.0477599-8.27426 5.1486347 0 9.6249681 3.38823082 11.0304727 8.2142787.1544278.5302552.709473.8349234 1.2397281.6804956s.8349233-.709473.6804955-1.23972811z"/><path d="m29.5 40c-7.4558441 0-13.5-6.0441559-13.5-13.5s6.0441559-13.5 13.5-13.5 13.5 6.0441559 13.5 13.5-6.0441559 13.5-13.5 13.5zm0-2c6.3512746 0 11.5-5.1487254 11.5-11.5s-5.1487254-11.5-11.5-11.5-11.5 5.1487254-11.5 11.5 5.1487254 11.5 11.5 11.5z"/><path d="m13.5 40c-7.45584412 0-13.5-6.0441559-13.5-13.5s6.04415588-13.5 13.5-13.5c7.4558441 0 13.5 6.0441559 13.5 13.5s-6.0441559 13.5-13.5 13.5zm0-2c6.3512746 0 11.5-5.1487254 11.5-11.5s-5.1487254-11.5-11.5-11.5c-6.35127462 0-11.5 5.1487254-11.5 11.5s5.14872538 11.5 11.5 11.5z"/></g><rect height="2" rx="1" width="10" x="17" y="6"/><rect height="2" rx="1" width="10" x="4" y="27"/><rect height="2" rx="1" width="10" x="29" y="27"/><rect height="2" rx="1" width="4" x="20" y="9"/><rect height="2" rx="1" width="4" x="7" y="30"/><rect height="2" rx="1" width="4" x="32" y="30"/><rect height="2" rx="1" width="3" x="20" y="22"/></g></g></svg>

<?xml version="1.0" encoding="UTF-8"?>
<svg width="86px" height="86px" viewBox="0 0 86 86" version="1.1" xmlns="http://www.w3.org/2000/svg" xmlns:xlink="http://www.w3.org/1999/xlink">
    <!-- Generator: Sketch 46.2 (44496) - http://www.bohemiancoding.com/sketch -->
    <title>ic/dashboard2</title>
    <desc>Created with Sketch.</desc>
    <defs></defs>
    <g id="Page-1" stroke="none" stroke-width="1" fill="none" fill-rule="evenodd">
        <g id="Temp-Screen" transform="translate(-299.000000, -2608.000000)">
            <g id="2-copy-3" transform="translate(299.000000, 2608.000000)">
                <g id="ic/dashboard2">
                    <circle id="Oval-" fill="#02AFDE" cx="43" cy="43" r="43"></circle>
                    <g id="Group-23" transform="translate(22.000000, 23.000000)" fill="#FFFFFF">
                        <path d="M9.07939818,18.6273825 C11.4891125,24.308234 16.4227091,28 21.9507936,28 C27.564474,28 32.5602966,24.1929765 34.9262901,18.3768112 C35.1343972,17.8652353 34.8883871,17.281817 34.3768112,17.0737099 C33.8652353,16.8656028 33.281817,17.1116129 33.0737099,17.6231888 C30.9984295,22.7247135 26.7003865,26 21.9507936,26 C17.2746157,26 13.0328291,22.8259092 10.9206018,17.8463773 C10.7049332,17.337943 10.1179317,17.1006095 9.60949738,17.3162781 C9.10106304,17.5319467 8.86372954,18.1189482 9.07939818,18.6273825 Z" id="Oval-6" fill-rule="nonzero"></path>
                        <path d="M34.9601118,9.65504619 C33.3069315,3.97855958 28.05069,0 22.0094155,0 C15.9411338,0 10.6673195,4.01396003 9.03834443,9.72573997 C8.8868748,10.2568477 9.19463226,10.8101859 9.72573997,10.9616556 C10.2568477,11.1131252 10.8101859,10.8053677 10.9616556,10.27426 C12.3465393,5.41835306 16.8378046,2 22.0094155,2 C27.1580502,2 31.6343836,5.38823082 33.0398882,10.2142787 C33.194316,10.7445339 33.7493612,11.0492021 34.2796163,10.8947743 C34.8098714,10.7403465 35.1145396,10.1853013 34.9601118,9.65504619 Z" id="Path" fill-rule="nonzero"></path>
                        <path d="M29.5,40 C22.0441559,40 16,33.9558441 16,26.5 C16,19.0441559 22.0441559,13 29.5,13 C36.9558441,13 43,19.0441559 43,26.5 C43,33.9558441 36.9558441,40 29.5,40 Z M29.5,38 C35.8512746,38 41,32.8512746 41,26.5 C41,20.1487254 35.8512746,15 29.5,15 C23.1487254,15 18,20.1487254 18,26.5 C18,32.8512746 23.1487254,38 29.5,38 Z" id="Oval-6-Copy" fill-rule="nonzero"></path>
                        <path d="M13.5,40 C6.04415588,40 0,33.9558441 0,26.5 C0,19.0441559 6.04415588,13 13.5,13 C20.9558441,13 27,19.0441559 27,26.5 C27,33.9558441 20.9558441,40 13.5,40 Z M13.5,38 C19.8512746,38 25,32.8512746 25,26.5 C25,20.1487254 19.8512746,15 13.5,15 C7.14872538,15 2,20.1487254 2,26.5 C2,32.8512746 7.14872538,38 13.5,38 Z" id="Oval-6-Copy-2" fill-rule="nonzero"></path>
                        <rect id="Rectangle-3" x="17" y="6" width="10" height="2" rx="1"></rect>
                        <rect id="Rectangle-3-Copy-3" x="4" y="27" width="10" height="2" rx="1"></rect>
                        <rect id="Rectangle-3-Copy-5" x="29" y="27" width="10" height="2" rx="1"></rect>
                        <rect id="Rectangle-3-Copy" x="20" y="9" width="4" height="2" rx="1"></rect>
                        <rect id="Rectangle-3-Copy-4" x="7" y="30" width="4" height="2" rx="1"></rect>
                        <rect id="Rectangle-3-Copy-6" x="32" y="30" width="4" height="2" rx="1"></rect>
                        <rect id="Rectangle-3-Copy-2" x="20" y="22" width="3" height="2" rx="1"></rect>
                    </g>
                </g>
            </g>
        </g>
    </g>
</svg>
